X:1
T:James Gibb editions
T:Psalm 137 (Becker) - Schütz
%%score [ ( 1 2 ) ( 3 4 ) ]
L:1/8
Q:1/4=98
M:2/2
K:F
V:1 treble nm="Soprano Alto"
V:2 treble 
V:3 bass nm="Tenor Bass"
V:4 bass 
V:1
"^Cornelius Becker\n(1561-1604)""^Psalm 137, SWV 242""^Heinrich Schütz\n(1585-1672)" c4 d2 c2 | %1
w: ~An Was- ser-|
w: als wir ge-|
 A4 c4 | B2 B2 A4 | F4 A2 B2 | (c3 B A2) B2 | G4 F4 :|[M:2/2] F4 G2 A2 | B4 G4 | A2 G2 F4 | %9
w: flüs- sen|Ba- by- lon|da sa- ßen|wir * * mit|Schmer- zen,|Wir hin- gen|auf mit|schwe- rem Mut|
w: dach- ten|an Zi- on,|da wein- ten|wir * * von|Her- zen.||||
 F4 A2 B2 | c4 d4 | A2 =B2 c4 | A4 c2 d2 | A2 c2 B4 | A8 | d4 d2 d2 | G4 c4 | B4 A4 | G8 | %19
w: die Har- fen|und die|Or- geln gut|an ih- re|Bäum der Wei-|den,|die drin- nen|sind in|ih- rem|Land,|
w: ||||||||||
 B4 A2 G2 | F4 G4 | (E2 F2) D4 | C6 C2 | F2 G2 A2 B2 | (c3 B A2 B2 | G8) | F8 |] %27
w: da muß- ten|wir viel|Schmach * und|Schand tag-|lich von ih- nen||||
w: ||||||||
V:2
 F4 F2 E2 | D4 E4 | D2 D2 D4 | C4 D2 D2 | (E2 C2 D2) F2- | F2 E2 F4 :|[M:2/2] C4 E2 F2 | F4 E4 | %8
w: ||||||||
 F2 E2 F4 | C4 D2 D2 | F4 F4 | E2 G2 G4 | F4 C2 F2 | F2 E2 G4 | ^F8 | F4 F2 D2 | E4 F4 | D4 D4 | %18
w: ||||||||||
 D8 | D4 D2 B,2 | D4 D4 | C6 =B,2 | C6 A,2 | C2 C2 D2 D2 | (E4 F4- | F2 ED E4) | F8 |] %27
w: ||||||lei\- *||den.|
V:3
 A,4 B,2 G,2 | F,4 A,4 | F,2 G,2 ^F,4 | A,4 F,2 D,2 | (A,3 G, F,2) D2 | C4 C4 :|[M:2/2] A,4 C2 C2 | %7
 D4 C4 | C2 C2 C4 | A,4 F,2 F,2 | A,4 A,4 | C2 D2 E4 | C4 F2 D2 | C2 A,2 D4- | D4 A,4 | %15
 B,4 B,2 F,2 | C6 F,2 | (F,2 G,4) ^F,2 | G,8 | %19
"^2. Die uns gefangen hielten lang\nso hart an selben Orten, \nbegehrten von uns ein Gesang \nmit gar spöttlichen Worten \nund suchten in der Traurigkeit \nein frohen G'sang in unserm Leid: \nach lieber, tut uns singen \nein Lobgesang, ein Liedlein schon \nvon den Gedichten aus Zion, \ndas fröhlich tut erklingen." G,4 F,2 G,2 | %20
 B,4 B,4 | (G,2 A,2) G,4 | %22
 G,6"^3. Wie sollen wir in solchem Zwang \nund Elend, jetzt vorhanden, \ndem Herren singen ein Gesang, \nsogar in fremden Landen? \nJerusalem vergeß ich dein, \nso wolle Gott, der G'rechte mein \nvergessen in mein'm Leben. \nWir könn' nicht Freud er zwingen, \nfröhliche Lieder singen, \nda wir im Elend leben." F,2 | %23
 A,2 G,2 F,2 D,2 | (A,3 G, F,2 D2 | C8) | C8 |] %27
V:4
 F,4 B,,2 C,2 | D,4 A,,4 | D,2 G,,2 D,4 | F,4 D,2 B,,2 | (A,,4 D,2) B,,2 | C,4 F,4 :| %6
[M:2/2] F,4 C,2 F,2 | B,,4 C,4 | F,2 C,2 F,4 | F,4 D,2 B,,2 | F,4 D,4 | A,2 G,2 C,4 | F,4 A,2 B,2 | %13
 F,2 A,2 G,4 | D,8 | B,,4 B,,2 B,,2 | C,4 A,,4 | (B,,2 G,,2) D,4 | G,,8 | G,4 D,2 _E,2 | %20
 B,,4 G,,4 | (C,2 F,2) G,4 | C,6 F,2 | F,2 E,2 D,2 B,,2 | (A,,4 D,2 B,,2 | C,8) | F,8 |] %27

